X: 17204
T: Henry Sears
R: jig
M: 6/8
K: Dmixolydian
|:ABA DEG|FEF DA,B,|C3 CDC|B,G,G, BAG|
~A3 DEG|FEF DA,B,|CEG c3|1 c3 BAG:|2 c3 cA^c||
|:~d3 fgf|dcd cAG|ADD BDD|cec =fce|
~d3 fga|gfd c3|^cde gag|1 ed^c dAc:|2 fed ^cAG||

